X: 554
T:Coachman's Whip, the
R:reel
C:Vincent Broderick
S:John Skelton, East Durham 2002
Z:lesl
M:C|
N:Posted to the woodenflute mailing list, July 2002
K:G
GE|:D2DE G2GB|d2BG DGBG|E2cE dEcE|dBAG FAGE|
D2DE G2GB|d2BG DGBG|FGAB cdef|gdcA BGG2:|
|:d2BG DGBG|E2cE dEcE|d2BG DGBG|FGAc BGGB|
d2BG DGBG|E2cE DEcE|FGAB cdef|gdcA BGG2:|
<end>
<start>
